foundry/orbiter/images/gear.svg

<?xml version="1.0" encoding="UTF-8" standalone="no"?>
<svg
   viewBox="0 0 10 10"
   version="1.1"
   id="svg12006"
   sodipodi:docname="gear.svg"
   inkscape:version="1.2.2 (b0a8486541, 2022-12-01)"
   xmlns:inkscape="http://www.inkscape.org/namespaces/inkscape"
   xmlns:sodipodi="http://sodipodi.sourceforge.net/DTD/sodipodi-0.dtd"
   xmlns="http://www.w3.org/2000/svg"
   xmlns:svg="http://www.w3.org/2000/svg">
  <defs
     id="defs12010" />
  <sodipodi:namedview
     id="namedview12008"
     pagecolor="#505050"
     bordercolor="#eeeeee"
     borderopacity="1"
     inkscape:showpageshadow="0"
     inkscape:pageopacity="0"
     inkscape:pagecheckerboard="0"
     inkscape:deskcolor="#505050"
     showgrid="true"
     inkscape:zoom="90.509668"
     inkscape:cx="5.4745533"
     inkscape:cy="3.3863786"
     inkscape:window-width="2494"
     inkscape:window-height="1371"
     inkscape:window-x="66"
     inkscape:window-y="32"
     inkscape:window-maximized="1"
     inkscape:current-layer="svg12006">
    <inkscape:grid
       type="xygrid"
       id="grid12184" />
  </sodipodi:namedview>
  <path
     id="rect342"
     style="fill:#ffffff;stroke-width:1.15357;stroke-linecap:round"
     d="M 4.5742188,1 C 4.2608381,1 4.0097656,1.2510725 4.0097656,1.5644531 V 2.1816406 C 3.907395,2.216574 3.8069885,2.2569974 3.7089844,2.3027344 L 3.2753906,1.8691406 C 3.053797,1.647547 2.6981561,1.647547 2.4765625,1.8691406 L 1.8710938,2.4746094 c -0.2215936,0.2215936 -0.2215936,0.5772345 0,0.7988281 L 2.296875,3.6992188 C 2.249519,3.7996956 2.207788,3.9027187 2.171875,4.0078125 H 1.5664062 c -0.3133804,0 -0.5644531,0.2510725 -0.5644531,0.5644531 v 0.8574219 c 0,0.3133806 0.2510727,0.5644531 0.5644531,0.5644531 h 0.5996094 c 0.036414,0.1064596 0.078799,0.210791 0.1269532,0.3125 l -0.421875,0.421875 c -0.2215936,0.2215936 -0.2215936,0.5791877 0,0.8007813 l 0.6054687,0.6054687 c 0.2215936,0.2215936 0.5772345,0.2215936 0.7988281,0 L 3.6992188,7.7109375 c 0.10115,0.04673 0.2048257,0.087809 0.3105468,0.1230469 V 8.4375 c 0,0.3133806 0.2510725,0.5664062 0.5644532,0.5664062 h 0.8574218 c 0.3133807,0 0.5644532,-0.2530256 0.5644532,-0.5664062 V 7.8320312 c 0.1044376,-0.036011 0.2068065,-0.077741 0.3066406,-0.125 l 0.4277344,0.4277344 c 0.2215933,0.2215936 0.5772345,0.2215936 0.7988281,0 L 8.1347656,7.5292969 c 0.2215936,-0.2215936 0.2215936,-0.5791877 0,-0.8007813 L 7.7070312,6.3007812 c 0.046626,-0.099881 0.087704,-0.2022495 0.1230469,-0.3066406 h 0.609375 c 0.3133807,0 0.5664063,-0.2510725 0.5664063,-0.5644531 V 4.5722656 c 0,-0.3133806 -0.2530256,-0.5644531 -0.5664063,-0.5644531 H 7.8320312 C 7.7953457,3.9040026 7.7529639,3.8022863 7.7050781,3.703125 L 8.1347656,3.2734375 c 0.2215936,-0.2215936 0.2215936,-0.5772345 0,-0.7988281 L 7.5292969,1.8691406 c -0.2215936,-0.2215936 -0.5772348,-0.2215936 -0.7988281,0 L 6.296875,2.3027344 C 6.198952,2.2556714 6.0985445,2.2139434 5.9960938,2.1777344 V 1.5644531 C 5.9960937,1.2510725 5.7450213,1 5.4316406,1 Z M 5.0203004,2.9772848 C 6.1905187,2.9885331 6.9995645,3.7775342 7.0028849,4.9995591 6.9974247,6.2084102 6.2002225,7.0191299 5.0084386,7.0365028 3.8272557,7.0260645 2.9678373,6.2155937 2.9614614,4.9897925 2.9823288,3.8224917 3.873704,2.9890216 5.0203004,2.9772848 Z"
     sodipodi:nodetypes="ssccssssccssssccssssccssssccssssccssssccssssccsssccccc" />
</svg>

<?xml version="1.0" encoding="UTF-8" standalone="no"?>
<svg
   viewBox="0 0 10 10"
   version="1.1"
   id="svg12006"
   sodipodi:docname="gear.svg"
   inkscape:version="1.2.2 (b0a8486541, 2022-12-01)"
   xmlns:inkscape="http://www.inkscape.org/namespaces/inkscape"
   xmlns:sodipodi="http://sodipodi.sourceforge.net/DTD/sodipodi-0.dtd"
   xmlns="http://www.w3.org/2000/svg"
   xmlns:svg="http://www.w3.org/2000/svg">
  <defs
     id="defs12010" />
  <sodipodi:namedview
     id="namedview12008"
     pagecolor="#505050"
     bordercolor="#eeeeee"
     borderopacity="1"
     inkscape:showpageshadow="0"
     inkscape:pageopacity="0"
     inkscape:pagecheckerboard="0"
     inkscape:deskcolor="#505050"
     showgrid="true"
     inkscape:zoom="90.509668"
     inkscape:cx="6.0546018"
     inkscape:cy="3.37533"
     inkscape:window-width="2494"
     inkscape:window-height="1371"
     inkscape:window-x="66"
     inkscape:window-y="32"
     inkscape:window-maximized="1"
     inkscape:current-layer="svg12006">
    <inkscape:grid
       type="xygrid"
       id="grid12184" />
  </sodipodi:namedview>
  <path
     id="rect342"
     style="fill:#ffffff;stroke-width:1.15357;stroke-linecap:round"
     d="M 4.5742188 1 C 4.2608381 1 4.0097656 1.2510725 4.0097656 1.5644531 L 4.0097656 2.1816406 A 3.0061872 3.0003314 0 0 0 3.7089844 2.3027344 L 3.2753906 1.8691406 C 3.053797 1.647547 2.6981561 1.647547 2.4765625 1.8691406 L 1.8710938 2.4746094 C 1.6495002 2.696203 1.6495002 3.0518439 1.8710938 3.2734375 L 2.296875 3.6992188 A 3.0061872 3.0003314 0 0 0 2.171875 4.0078125 L 1.5664062 4.0078125 C 1.2530258 4.0078125 1.0019531 4.258885 1.0019531 4.5722656 L 1.0019531 5.4296875 C 1.0019531 5.7430681 1.2530258 5.9941406 1.5664062 5.9941406 L 2.1660156 5.9941406 A 3.0061872 3.0003314 0 0 0 2.2929688 6.3066406 L 1.8710938 6.7285156 C 1.6495002 6.9501092 1.6495002 7.3077033 1.8710938 7.5292969 L 2.4765625 8.1347656 C 2.6981561 8.3563592 3.053797 8.3563592 3.2753906 8.1347656 L 3.6992188 7.7109375 A 3.0061872 3.0003314 0 0 0 4.0097656 7.8339844 L 4.0097656 8.4375 C 4.0097656 8.7508806 4.2608381 9.0039062 4.5742188 9.0039062 L 5.4316406 9.0039062 C 5.7450213 9.0039062 5.9960938 8.7508806 5.9960938 8.4375 L 5.9960938 7.8320312 A 3.0061872 3.0003314 0 0 0 6.3027344 7.7070312 L 6.7304688 8.1347656 C 6.9520621 8.3563592 7.3077033 8.3563592 7.5292969 8.1347656 L 8.1347656 7.5292969 C 8.3563592 7.3077033 8.3563592 6.9501092 8.1347656 6.7285156 L 7.7070312 6.3007812 A 3.0061872 3.0003314 0 0 0 7.8300781 5.9941406 L 8.4394531 5.9941406 C 8.7528338 5.9941406 9.0058594 5.7430681 9.0058594 5.4296875 L 9.0058594 4.5722656 C 9.0058594 4.258885 8.7528338 4.0078125 8.4394531 4.0078125 L 7.8320312 4.0078125 A 3.0061872 3.0003314 0 0 0 7.7050781 3.703125 L 8.1347656 3.2734375 C 8.3563592 3.0518439 8.3563592 2.696203 8.1347656 2.4746094 L 7.5292969 1.8691406 C 7.3077033 1.647547 6.9520621 1.647547 6.7304688 1.8691406 L 6.296875 2.3027344 A 3.0061872 3.0003314 0 0 0 5.9960938 2.1777344 L 5.9960938 1.5644531 C 5.9960937 1.2510725 5.7450213 1 5.4316406 1 L 4.5742188 1 z M 4.9980469 4.0195312 A 0.99090409 0.98897386 0 0 1 5.9902344 5.0078125 A 0.99090409 0.98897386 0 0 1 4.9980469 5.9980469 A 0.99090409 0.98897386 0 0 1 4.0078125 5.0078125 A 0.99090409 0.98897386 0 0 1 4.9980469 4.0195312 z " />
</svg>
